X: 206
T:Shiobhan O\'Donnell\'s
M:C
L:1/8
Q:224
D:Lunasa
Z:Christoph
K:A
cAce a2 ba | f3 a fece | f3 e cBAF | EFAB cBAF |
ECEF ABce | f3 a fece | f2 ec dBcA | BAGB cA A2 :|
| A2 ce fece | fa (3AAA fAeA | fA (3AAA f2 ef | aefa fece |
f3 e cBAF | E3 F ABce | f2 ec dBcA | BAGB cA A2 :|
